X: 21638
T: Killavil, The
R: jig
M: 6/8
K: Edorian
|:BEE BEE|def edB|BAF ~F3|AFA dAF|
~B3 BAB|def edB|~A3 dAF|~E3 E3:|
|:Bef gfe|~f3 edB|BAF ~F3|AFA dAF|
[1 ~B3 gfe|~f3 edB|~A3 dAF|~E3 E3:|
[2 ~B3 gfe|f/g/af edB|~A3 dAF|~E3 E3||

